!!!OTL: Chashan naocongcong
!!!ARE: Asia, China, Fujian Yongchun
!! II, 574, 2)
!!!SCT: C1999
!!!YEM: Copyright 1995, estate of Helmut Schaffrath.
**kern
*ICvox
*Ivox
*M6/8
*k[f#c#g#]
*A:
{8f#
8b
8cc#
8a
8b
8a
=1
8f#
8a
8f#
4.b}
=2
{8cc#
4cc#
16b
16cc#
8b
8a
=3
8f#
8a
8f#
4.b}
=4
{8b
8a
8f#
8f#
8b
8cc#
=5
8b
8a
8f#
8f#
4f#}
=6
{8b
8cc#
8ee
16b
16cc#
8b
8a
=7
8f#
8a
8f#
4.b}
==
!!!AGN: Shange, Chage
!!!AMT: compound duple
!!!AIN: vox
!!!EED: Helmut Schaffrath
!!!EEV: 1.0
*-
